X: 37
T: JIG: Jimmy Ward's
C: C: Trad.; S: Various
C: Set Leaders: Mars, Tania, Sophie, Anton
Z: [Unedited]; Phantom Button at The Session
N: https://thesession.org/members/26966/sets/94272
R: Jig
M: 6/8
L: 1/8
Q: 3/8=116
K: Gmaj
|:G3 GAB|AGE GED|~G3 AGE|GED DEF|
G3 GAB|AGE GAB|cBA BGE|1 DED DEF:|2 DED D3||
|:cBA BAG|ABA AGE|cBA BGE|EDE GAB|
cBA BAG|AAA ABc|dcA AGE|1 GED DAB:|2 GED DEF||

